X: 1
T: Molly Rankine's Reel
C: John Morris Rankine
M: 4/4
L: 1/8
R: reel
Z: 2011 John Chambers <jc:trillian.mit.edu>
S: printed MS from Debbie Knight, with handwritten chords
K: D
dB \
| "D"Ad (3ddd d2df | "A7"edef edB2 | "D"Ad (3ddd d2ef | afdf "A7"e2dB || "D"Ad (3ddd d2df |
| "A7"edef edB2 | "D"abaf "Em"edef | "D"defd "A7"e2 :: ef | "D"aA (3AAA afef | abaf "A7"edef |
| "D"aA (3AAA afef | defd "A7"e2fg || "D"aA (3AAA afef | abaf "A7"edef | "Em"gef[bd] edBe | "D"defd "A7"e2 :|
